X: 26342
T: Merle's Tune
R: reel
M: 4/4
K: Bdorian
|:BFBc dBFE|DB,A,B, A,B,CE|FBBc defg|aAfd cAec|
BFBc dAFE|DEFG AECE|DA,DF AFDF|AECF DB, ~B,2:|
|:Bcdf bBgB|fBfa fBdB|ABce aAfA|eAea eAcA|
BFBc dBFB|defg aece|dAfd cAec|AECF DB,~B,2:|

